src/standard/apple-core.svg

<?xml version="1.0" encoding="UTF-8"?><svg id="a" xmlns="http://www.w3.org/2000/svg" viewBox="0 0 36 36"><title>Compost icon - Black</title>
<desc>compost, trash, recycle, tree, fruit, food, drink, shapes and signage</desc>
<metadata><?xpacket begin="﻿" id="W5M0MpCehiHzreSzNTczkc9d"?>
<x:xmpmeta xmlns:x="adobe:ns:meta/" x:xmptk="Adobe XMP Core 8.0-c001 1.000000, 0000/00/00-00:00:00        ">
   <rdf:RDF xmlns:rdf="http://www.w3.org/1999/02/22-rdf-syntax-ns#">
      <rdf:Description rdf:about=""
            xmlns:xmp="http://ns.adobe.com/xap/1.0/"
            xmlns:dc="http://purl.org/dc/elements/1.1/"
            xmlns:cq="http://www.day.com/jcr/cq/1.0"
            xmlns:tiff="http://ns.adobe.com/tiff/1.0/">
         <xmp:rhcc-effective-on>2023-12-08T17:37:50.916Z</xmp:rhcc-effective-on>
         <xmp:rhcc-metadata-complete-moderator>pending</xmp:rhcc-metadata-complete-moderator>
         <xmp:rhcc-translation-id>TRA6742cd10-3e7f-42ff-b46c-75653d8587f8</xmp:rhcc-translation-id>
         <xmp:brand-content-type>Icon</xmp:brand-content-type>
         <xmp:CreateDate>2023-12-08T17:37:50.916Z</xmp:CreateDate>
         <xmp:rhcc-effective-on-set-on-upload>true</xmp:rhcc-effective-on-set-on-upload>
         <xmp:rhcc-metadata-complete-uploader>pending</xmp:rhcc-metadata-complete-uploader>
         <xmp:rhcc-file-last-modified>2023-12-08T17:40:49.403Z</xmp:rhcc-file-last-modified>
         <xmp:rhcc-audience>rhcc-audience:internal</xmp:rhcc-audience>
         <xmp:rhcc-rights-restricted>no</xmp:rhcc-rights-restricted>
         <xmp:brand-content-subtype>Icon</xmp:brand-content-subtype>
         <xmp:rhcc-derivative-id>DER6742cd10-3e7f-42ff-b46c-75653d8587f8</xmp:rhcc-derivative-id>
         <xmp:brand-logo-color>Black</xmp:brand-logo-color>
         <xmp:rhcc-notify-portal-subscribers-on-change>yes</xmp:rhcc-notify-portal-subscribers-on-change>
         <dc:format>image/svg+xml</dc:format>
         <dc:modified>2024-02-09T20:27:39.159Z</dc:modified>
         <dc:title>
            <rdf:Alt>
               <rdf:li xml:lang="x-default">Compost icon - Black</rdf:li>
            </rdf:Alt>
         </dc:title>
         <dc:description>
            <rdf:Alt>
               <rdf:li xml:lang="x-default">compost, trash, recycle, tree, fruit, food, drink, shapes and signage</rdf:li>
            </rdf:Alt>
         </dc:description>
         <cq:lastReplicationAction_scene7>Activate</cq:lastReplicationAction_scene7>
         <cq:lastReplicationAction_publish>Activate</cq:lastReplicationAction_publish>
         <cq:lastReplicated_publish>2024-02-09T22:14:24.396Z</cq:lastReplicated_publish>
         <cq:lastReplicatedBy>workflow-process-service</cq:lastReplicatedBy>
         <cq:lastReplicationAction>Activate</cq:lastReplicationAction>
         <cq:lastReplicatedBy_publish>workflow-process-service</cq:lastReplicatedBy_publish>
         <cq:isDelivered>true</cq:isDelivered>
         <cq:lastReplicated>2024-02-09T22:14:24.396Z</cq:lastReplicated>
         <cq:lastReplicatedBy_scene7>workflow-process-service</cq:lastReplicatedBy_scene7>
         <cq:lastReplicated_scene7>2024-02-09T22:14:24.396Z</cq:lastReplicated_scene7>
         <tiff:ImageLength>36</tiff:ImageLength>
         <tiff:ImageWidth>36</tiff:ImageWidth>
      </rdf:Description>
   </rdf:RDF>
</x:xmpmeta>
                                                                                                    
                                                                                                    
                                                                                                    
                                                                                                    
                                                                                                    
                                                                                                    
                                                                                                    
                                                                                                    
                                                                                                    
                                                                                                    
                                 
<?xpacket end="w"?></metadata>
<path d="M18,9.625c-1.999,0-3.625-1.626-3.625-3.625,0-.3281,.0547-.668,.167-1.04,.0601-.2002,.2168-.3564,.417-.418,.3716-.1123,.7124-.167,1.041-.167,1.999,0,3.625,1.626,3.625,3.625,0,.3281-.0547,.668-.167,1.04-.0601,.2002-.2168,.3564-.417,.418-.3716,.1123-.7124,.167-1.041,.167Zm.8599-.7656h0Zm-3.2031-3.2031c-.0215,.1211-.0317,.2334-.0317,.3438,0,1.3096,1.0654,2.375,2.375,2.375,.1104,0,.2231-.0107,.3433-.0312,.0215-.1211,.0317-.2334,.0317-.3438,0-1.3096-1.0654-2.375-2.375-2.375-.1104,0-.2231,.0107-.3433,.0312Z"/><path d="M22,31.625c-1.5244,0-2.9453-.6084-4-1.6904-1.0547,1.082-2.4756,1.6904-4,1.6904-2.334,0-4.4487-1.4805-5.2622-3.6836-.1016-.2754,.0015-.583,.248-.7422,2.1221-1.3682,3.3892-3.6855,3.3892-6.1992,0-3.1523-2.0068-5.9551-4.9941-6.9736-.1689-.0576-.3047-.1846-.374-.3486s-.0654-.3506,.0112-.5107c1.0928-2.3037,3.4409-3.792,5.9819-3.792,1.9351,0,3.749,.8389,5,2.2803,1.251-1.4414,3.0649-2.2803,5-2.2803,2.541,0,4.8892,1.4883,5.9819,3.792,.0767,.1602,.0806,.3467,.0112,.5107s-.2051,.291-.374,.3486c-2.9873,1.0186-4.9941,3.8213-4.9941,6.9736,0,2.5137,1.2671,4.8311,3.3892,6.1992,.2466,.1592,.3496,.4668,.248,.7422-.8135,2.2031-2.9282,3.6836-5.2622,3.6836Zm-4-3.2773c.1973,0,.3833,.0938,.501,.252,.8408,1.1279,2.1162,1.7754,3.499,1.7754,1.6533,0,3.165-.958,3.8989-2.4268-2.2163-1.626-3.5239-4.1855-3.5239-6.9482,0-3.4385,2.0415-6.5215,5.1504-7.8877-.9795-1.5303-2.6904-2.4873-4.5254-2.4873-1.8042,0-3.4785,.8994-4.4795,2.4062-.2314,.3496-.8096,.3496-1.041,0-1.001-1.5068-2.6753-2.4062-4.4795-2.4062-1.835,0-3.5459,.957-4.5254,2.4873,3.1089,1.3662,5.1504,4.4492,5.1504,7.8877,0,2.7627-1.3076,5.3223-3.5239,6.9482,.7339,1.4688,2.2456,2.4268,3.8989,2.4268,1.3828,0,2.6582-.6475,3.499-1.7754,.1177-.1582,.3037-.252,.501-.252Z"/><path d="M17,21.625c-.3452,0-.625-.2803-.625-.625v-1c0-.3447,.2798-.625,.625-.625s.625,.2803,.625,.625v1c0,.3447-.2798,.625-.625,.625Z"/><path d="M19,21.625c-.3452,0-.625-.2803-.625-.625v-1c0-.3447,.2798-.625,.625-.625s.625,.2803,.625,.625v1c0,.3447-.2798,.625-.625,.625Z"/></svg>

<svg xmlns="http://www.w3.org/2000/svg" viewBox="0 0 36 36">
  <path d="M18 9.625A3.629 3.629 0 0 1 14.375 6c0-.328.055-.668.167-1.04.06-.2.217-.356.417-.418A3.573 3.573 0 0 1 16 4.375 3.629 3.629 0 0 1 19.625 8c0 .328-.055.668-.167 1.04a.627.627 0 0 1-.417.418A3.573 3.573 0 0 1 18 9.625Zm.86-.766Zm-3.203-3.203a1.948 1.948 0 0 0-.032.344A2.378 2.378 0 0 0 18 8.375c.11 0 .223-.01.343-.031A1.9 1.9 0 0 0 18.375 8 2.378 2.378 0 0 0 16 5.625c-.11 0-.223.01-.343.031Z"/>
  <path d="M22 31.625a5.55 5.55 0 0 1-4-1.69 5.55 5.55 0 0 1-4 1.69c-2.334 0-4.449-1.48-5.262-3.684a.625.625 0 0 1 .248-.742A7.352 7.352 0 0 0 12.375 21a7.369 7.369 0 0 0-4.994-6.974.625.625 0 0 1-.363-.859A6.655 6.655 0 0 1 13 9.375a6.61 6.61 0 0 1 5 2.28 6.61 6.61 0 0 1 5-2.28 6.655 6.655 0 0 1 5.982 3.792.623.623 0 0 1-.363.86A7.369 7.369 0 0 0 23.625 21a7.352 7.352 0 0 0 3.39 6.2.623.623 0 0 1 .247.741c-.813 2.204-2.928 3.684-5.262 3.684Zm-4-3.277c.197 0 .383.094.501.252A4.334 4.334 0 0 0 22 30.375a4.382 4.382 0 0 0 3.899-2.427A8.59 8.59 0 0 1 22.375 21a8.618 8.618 0 0 1 5.15-7.888A5.399 5.399 0 0 0 23 10.625c-1.804 0-3.478.9-4.48 2.406-.23.35-.81.35-1.04 0A5.368 5.368 0 0 0 13 10.625a5.399 5.399 0 0 0-4.525 2.487A8.618 8.618 0 0 1 13.625 21a8.59 8.59 0 0 1-3.524 6.948A4.382 4.382 0 0 0 14 30.375c1.383 0 2.658-.647 3.499-1.775a.625.625 0 0 1 .501-.252Z"/>
  <path d="M17 21.625a.625.625 0 0 1-.625-.625v-1a.625.625 0 0 1 1.25 0v1c0 .345-.28.625-.625.625Zm2 0a.625.625 0 0 1-.625-.625v-1a.625.625 0 0 1 1.25 0v1c0 .345-.28.625-.625.625Z"/>
</svg>
